brandFactory_export/2.Regular/Accesibilidad_2Regular.svg

<?xml version="1.0" encoding="UTF-8"?>
<svg width="24px" height="24px" viewBox="0 0 24 24" version="1.1" xmlns="http://www.w3.org/2000/svg" xmlns:xlink="http://www.w3.org/1999/xlink">
    <title>2.Regular/Accesibilidad_2Regular</title>
    <g id="Symbols" stroke="none" stroke-width="1" fill="none" fill-rule="evenodd">
        <g id="2.Regular/Accesibilidad_2Regular" fill="#5CB615" fill-rule="nonzero">
            <path d="M17.5428571,16.594958 C19.5226891,15.6403361 21.4857143,14.194958 23.4151261,12.2655462 C23.5428571,12.1378151 23.6134454,11.9663866 23.6134454,11.7882353 C23.6134454,11.610084 23.5428571,11.4386555 23.4151261,11.3142857 C19.6571429,7.54957983 15.7647059,5.64369748 11.8453782,5.64369748 C10.3630252,5.64369748 8.88403361,5.91596639 7.41176471,6.4605042 L1.1697479,0.221848739 C0.907563025,-0.0403361345 0.484033613,-0.0403361345 0.221848739,0.221848739 C-0.0403361345,0.484033613 -0.0403361345,0.91092437 0.221848739,1.17310924 L6.08067227,7.03193277 C4.09747899,7.98655462 2.13445378,9.43193277 0.205042017,11.3613445 C0.0773109244,11.4890756 0.00672268908,11.6605042 0.00672268908,11.8386555 C0.00672268908,12.0168067 0.0773109244,12.1882353 0.205042017,12.312605 C3.96638655,16.0739496 7.85882353,17.9798319 11.7781513,17.9798319 C13.2605042,17.9798319 14.7394958,17.707563 16.2117647,17.1630252 L22.4504202,23.4016807 C22.5815126,23.5327731 22.7529412,23.6 22.9243697,23.6 C23.0957983,23.6 23.2672269,23.5327731 23.3983193,23.4016807 C23.6605042,23.1394958 23.6605042,22.712605 23.3983193,22.4504202 L17.5428571,16.594958 Z M11.8453782,6.98823529 C15.2302521,6.98823529 18.6352941,8.60168067 21.9798319,11.7882353 C20.1747899,13.5092437 18.3529412,14.7764706 16.5310924,15.5831933 L15.4218487,14.4739496 C15.8218487,13.7915966 16.0268908,12.9411765 16.0268908,11.9327731 C16.0268908,9.12941176 14.4268908,7.52268908 11.6369748,7.52268908 C10.6285714,7.52268908 9.77478992,7.73109244 9.08907563,8.13781513 L8.47058824,7.52268908 C9.59663866,7.16638655 10.7226891,6.98823529 11.8453782,6.98823529 Z M11.7815126,10.1445378 C11.5663866,10.1445378 11.3647059,10.1747899 11.1831933,10.2319328 L9.83529412,8.88403361 C10.3260504,8.6487395 10.9277311,8.53109244 11.6369748,8.53109244 C12.712605,8.53109244 13.5462185,8.80336134 14.1142857,9.34453782 C14.712605,9.91260504 15.0151261,10.7831933 15.0151261,11.9294118 C15.0151261,12.6319328 14.9008403,13.2336134 14.6722689,13.7243697 L13.3647059,12.4168067 C13.4184874,12.2487395 13.4521008,12.0504202 13.4521008,11.8184874 C13.4521008,10.8033613 12.7966387,10.1445378 11.7815126,10.1445378 L11.7815126,10.1445378 Z M11.7781513,16.6352941 C8.39327731,16.6352941 4.98823529,15.0218487 1.64369748,11.8352941 C3.4487395,10.1176471 5.26722689,8.85042017 7.09243697,8.04369748 L10.097479,11.0487395 L10.0941176,11.0521008 L10.5848739,11.5394958 C10.7697479,11.7243697 11.092437,12.0537815 11.405042,12.3731092 C11.6605042,12.6352941 11.9058824,12.8840336 12.0537815,13.0319328 L12.5344538,13.512605 L12.5478992,13.4991597 L15.1529412,16.1042017 C14.0235294,16.4571429 12.897479,16.6352941 11.7781513,16.6352941 L11.7781513,16.6352941 Z" id="Accesibilidad_2Regular"></path>
        </g>
    </g>
</svg>

<svg width="24" height="24" viewBox="0 0 24 24" xmlns="http://www.w3.org/2000/svg"><path d="M17.543 16.595c1.98-.955 3.943-2.4 5.872-4.33a.674.674 0 00.198-.477.66.66 0 00-.198-.474c-3.758-3.764-7.65-5.67-11.57-5.67-1.482 0-2.961.272-4.433.817L1.17.22a.67.67 0 00-.948 0 .674.674 0 000 .952L6.08 7.032c-1.984.955-3.947 2.4-5.876 4.33a.674.674 0 00-.198.477c0 .178.07.35.198.474 3.761 3.76 7.654 5.667 11.573 5.667 1.483 0 2.961-.272 4.434-.817l6.238 6.239a.67.67 0 00.474.198.674.674 0 00.474-1.15l-5.855-5.855zm-5.698-9.607c3.385 0 6.79 1.614 10.135 4.8-1.805 1.721-3.627 2.988-5.449 3.795l-1.11-1.11c.4-.681.606-1.532.606-2.54 0-2.804-1.6-4.41-4.39-4.41-1.008 0-1.862.208-2.548.615l-.618-.615a11.139 11.139 0 013.374-.535zm-.063 3.157c-.216 0-.417.03-.599.087L9.835 8.884c.491-.235 1.093-.353 1.802-.353 1.076 0 1.91.272 2.477.814.599.568.901 1.438.901 2.584 0 .703-.114 1.305-.343 1.795l-1.307-1.307c.053-.168.087-.367.087-.599 0-1.015-.655-1.673-1.67-1.673zm-.004 6.49c-3.385 0-6.79-1.613-10.134-4.8 1.805-1.717 3.623-2.985 5.448-3.791l3.005 3.005-.003.003.49.487c.186.185.508.515.821.834.256.262.5.511.649.659l.48.48.014-.013 2.605 2.605c-1.13.353-2.256.531-3.375.531z" fill="#5CB615" fill-rule="nonzero"/></svg>
